asset/percent.svg

<svg width="55" height="56" viewBox="0 0 55 56" fill="none" xmlns="http://www.w3.org/2000/svg">
<path d="M37.7858 35.9643C37.7858 37.3705 36.6206 38.5357 35.2144 38.5357C33.8081 38.5357 32.643 37.3705 32.643 35.9643C32.643 34.558 33.8081 33.3928 35.2144 33.3928C36.6206 33.3928 37.7858 34.558 37.7858 35.9643ZM22.3572 20.5357C22.3572 21.9419 21.1921 23.1071 19.7858 23.1071C18.3796 23.1071 17.2144 21.9419 17.2144 20.5357C17.2144 19.1294 18.3796 17.9643 19.7858 17.9643C21.1921 17.9643 22.3572 19.1294 22.3572 20.5357ZM42.9287 35.9643C42.9287 31.7053 39.4733 28.25 35.2144 28.25C30.9555 28.25 27.5001 31.7053 27.5001 35.9643C27.5001 40.2232 30.9555 43.6786 35.2144 43.6786C39.4733 43.6786 42.9287 40.2232 42.9287 35.9643ZM41.0001 14.1071C41.0001 13.404 40.4175 12.8214 39.7144 12.8214H36.5001C36.0983 12.8214 35.7166 13.0223 35.4756 13.3437L14.2613 41.6294C14.1006 41.8504 14.0001 42.1116 14.0001 42.3928C14.0001 43.096 14.5827 43.6786 15.2858 43.6786H18.5001C18.9019 43.6786 19.2836 43.4777 19.5247 43.1562L40.7389 14.8705C40.8997 14.6495 41.0001 14.3884 41.0001 14.1071ZM27.5001 20.5357C27.5001 16.2768 24.0447 12.8214 19.7858 12.8214C15.5269 12.8214 12.0715 16.2768 12.0715 20.5357C12.0715 24.7946 15.5269 28.25 19.7858 28.25C24.0447 28.25 27.5001 24.7946 27.5001 20.5357Z" fill="white"/>
</svg>

<svg width="55" height="56" fill="none" xmlns="http://www.w3.org/2000/svg"><path d="M37.786 35.964a2.59 2.59 0 0 1-2.572 2.572 2.59 2.59 0 0 1-2.571-2.572 2.59 2.59 0 0 1 2.571-2.571 2.59 2.59 0 0 1 2.572 2.571zM22.357 20.536a2.59 2.59 0 0 1-2.571 2.571 2.59 2.59 0 0 1-2.572-2.571 2.59 2.59 0 0 1 2.572-2.572 2.59 2.59 0 0 1 2.571 2.572zM42.93 35.964a7.716 7.716 0 0 0-7.715-7.714 7.716 7.716 0 0 0-7.714 7.714 7.716 7.716 0 0 0 7.714 7.715 7.716 7.716 0 0 0 7.715-7.715zM41 14.107c0-.703-.583-1.286-1.286-1.286H36.5c-.402 0-.783.201-1.024.523L14.26 41.629c-.16.221-.26.483-.26.764 0 .703.582 1.286 1.285 1.286H18.5c.402 0 .784-.201 1.025-.523l21.214-28.285c.16-.222.261-.483.261-.764zm-13.5 6.429a7.716 7.716 0 0 0-7.714-7.715 7.716 7.716 0 0 0-7.715 7.715 7.716 7.716 0 0 0 7.715 7.714 7.716 7.716 0 0 0 7.714-7.714z" fill="#fff"/></svg>
